SVG_Azure_Grouped/Deployment/1ES.svg

<?xml version="1.0" encoding="UTF-8" standalone="no"?>
<!-- Generated by Microsoft Visio, SVG Export 1ES.svg Page-1 -->

<svg
   xmlns:dc="http://purl.org/dc/elements/1.1/"
   xmlns:cc="http://creativecommons.org/ns#"
   xmlns:rdf="http://www.w3.org/1999/02/22-rdf-syntax-ns#"
   xmlns:svg="http://www.w3.org/2000/svg"
   xmlns="http://www.w3.org/2000/svg"
   xmlns:sodipodi="http://sodipodi.sourceforge.net/DTD/sodipodi-0.dtd"
   xmlns:inkscape="http://www.inkscape.org/namespaces/inkscape"
   width="0.78735954in"
   height="0.77510506in"
   viewBox="0 0 56.689885 55.807703"
   xml:space="preserve"
   class="st6"
   version="1.1"
   id="svg44"
   sodipodi:docname="1ES.svg"
   style="font-size:12px;overflow:visible;color-interpolation-filters:sRGB;fill:none;fill-rule:evenodd;stroke-linecap:square;stroke-miterlimit:3"
   inkscape:version="0.92.5 (2060ec1f9f, 2020-04-08)"><metadata
   id="metadata50"><rdf:RDF><cc:Work
       rdf:about=""><dc:format>image/svg+xml</dc:format><dc:type
         rdf:resource="http://purl.org/dc/dcmitype/StillImage" /></cc:Work></rdf:RDF></metadata><defs
   id="defs48" /><sodipodi:namedview
   pagecolor="#ffffff"
   bordercolor="#666666"
   borderopacity="1"
   objecttolerance="10"
   gridtolerance="10"
   guidetolerance="10"
   inkscape:pageopacity="0"
   inkscape:pageshadow="2"
   inkscape:window-width="640"
   inkscape:window-height="480"
   id="namedview46"
   showgrid="false"
   inkscape:zoom="1.8365233"
   inkscape:cx="37.79522"
   inkscape:cy="18.306326"
   inkscape:window-x="0"
   inkscape:window-y="0"
   inkscape:window-maximized="0"
   inkscape:current-layer="svg44" />
	<style
   type="text/css"
   id="style2">
	<![CDATA[
		.st1 {fill:#971400;stroke:none;stroke-linecap:butt;stroke-width:4.78125}
		.st2 {fill:#d83b01;stroke:none;stroke-linecap:butt;stroke-width:4.78125}
		.st3 {fill:#f08b66;stroke:none;stroke-linecap:butt;stroke-width:4.78125}
		.st4 {fill:#b92701;stroke:none;stroke-linecap:butt;stroke-width:4.78125}
		.st5 {fill:#e56334;stroke:none;stroke-linecap:butt;stroke-width:4.78125}
		.st6 {fill:none;fill-rule:evenodd;font-size:12px;overflow:visible;stroke-linecap:square;stroke-miterlimit:3}
	]]>
	</style>

	<g
   id="g42"
   transform="translate(-5.6693502,-6.111077)">
		<title
   id="title4">Page-1</title>
		<g
   id="group17496-1"
   transform="translate(5.66929,-34.0157)">
			<title
   id="title6">1ES.17496</title>
			<g
   id="group17497-2">
				<title
   id="title8">Sheet.17497</title>
				<g
   id="shape17498-3">
					<title
   id="title10">Sheet.17498</title>
					<path
   d="m 0,71.28 a 2.23095,2.19592 -180 0 0 1.33,2.01 l 52.26,22.46 c 1.47,0.63 3.1,-0.43 3.1,-2.02 V 87.24 A 2.23184,2.19679 -180 0 0 55.36,85.23 L 3.1,62.77 C 1.64,62.14 0,63.21 0,64.79 Z"
   class="st1"
   id="path12"
   inkscape:connector-curvature="0"
   style="fill:#971400;stroke:none;stroke-width:4.78125;stroke-linecap:butt" />
				</g>
				<g
   id="shape17499-5"
   transform="translate(0,-14.3038)">
					<title
   id="title15">Sheet.17499</title>
					<path
   d="m 0,85.58 v -6.49 c 0,-1.58 1.64,-2.64 3.1,-2.01 l 26.55,11.41 c 1.68,0.72 1.81,3.03 0.22,3.92 l -6.54,3.68 A 2.20482,2.1702 0 0 1 21.35,96.2 L 1.33,87.6 A 2.2314,2.19636 0 0 1 0,85.58 Z"
   class="st2"
   id="path17"
   inkscape:connector-curvature="0"
   style="fill:#d83b01;stroke:none;stroke-width:4.78125;stroke-linecap:butt" />
				</g>
				<g
   id="shape17500-7"
   transform="translate(0,-22.4597)">
					<title
   id="title20">Sheet.17500</title>
					<path
   d="M 56.69,87.24 A 2.2314,2.19636 -180 0 0 55.36,85.23 L 3.1,62.77 C 1.64,62.14 0,63.21 0,64.79 v 6.49 a 2.2314,2.19636 -180 0 0 1.33,2.01 l 52.26,22.46 c 1.47,0.63 3.1,-0.43 3.1,-2.02 z"
   class="st3"
   id="path22"
   inkscape:connector-curvature="0"
   style="fill:#f08b66;stroke:none;stroke-width:4.78125;stroke-linecap:butt" />
				</g>
				<g
   id="shape17501-9"
   transform="translate(24.0896,-22.4593)">
					<title
   id="title25">Sheet.17501</title>
					<path
   d="m 32.6,87.24 v 6.49 c 0,1.59 -1.63,2.65 -3.1,2.02 L 1.78,83.84 C 0,83.07 0,80.57 1.79,79.81 l 7.57,-3.24 a 2.20438,2.16977 0 0 1 1.76,0 l 20.15,8.66 a 2.23095,2.19592 0 0 1 1.33,2.01 z"
   class="st2"
   id="path27"
   inkscape:connector-curvature="0"
   style="fill:#d83b01;stroke:none;stroke-width:4.78125;stroke-linecap:butt" />
				</g>
				<g
   id="shape17502-11">
					<title
   id="title30">Sheet.17502</title>
					<path
   d="M 0,87.24 A 2.2314,2.19636 0 0 1 1.33,85.23 L 53.59,62.77 c 1.47,-0.63 3.1,0.44 3.1,2.02 v 6.49 a 2.2314,2.19636 0 0 1 -1.33,2.01 L 3.1,95.75 C 1.64,96.38 0,95.32 0,93.73 Z"
   class="st4"
   id="path32"
   inkscape:connector-curvature="0"
   style="fill:#b92701;stroke:none;stroke-width:4.78125;stroke-linecap:butt" />
				</g>
				<g
   id="shape17503-13"
   transform="translate(0,-22.4597)">
					<title
   id="title35">Sheet.17503</title>
					<path
   d="m 56.69,71.28 a 2.2314,2.19636 0 0 1 -1.33,2.01 L 3.1,95.75 C 1.64,96.38 0,95.32 0,93.73 V 87.24 A 2.2314,2.19636 0 0 1 1.33,85.23 L 53.59,62.77 c 1.47,-0.63 3.1,0.44 3.1,2.02 z"
   class="st5"
   id="path37"
   inkscape:connector-curvature="0"
   style="fill:#e56334;stroke:none;stroke-width:4.78125;stroke-linecap:butt" />
				</g>
			</g>
		</g>
	</g>
</svg>

<?xml version="1.0" encoding="UTF-8" standalone="no"?>
<!DOCTYPE svg PUBLIC "-//W3C//DTD SVG 1.1//EN" "http://www.w3.org/Graphics/SVG/1.1/DTD/svg11.dtd">
<!-- Generated by Microsoft Visio, SVG Export 1ES.svg Page-1 -->
<svg xmlns="http://www.w3.org/2000/svg" xmlns:xlink="http://www.w3.org/1999/xlink" xmlns:ev="http://www.w3.org/2001/xml-events"
		width="0.944882in" height="1.33858in" viewBox="0 0 68.0315 96.378" xml:space="preserve" color-interpolation-filters="sRGB"
		class="st6">
	<style type="text/css">
	<![CDATA[
		.st1 {fill:#971400;stroke:none;stroke-linecap:butt;stroke-width:4.78125}
		.st2 {fill:#d83b01;stroke:none;stroke-linecap:butt;stroke-width:4.78125}
		.st3 {fill:#f08b66;stroke:none;stroke-linecap:butt;stroke-width:4.78125}
		.st4 {fill:#b92701;stroke:none;stroke-linecap:butt;stroke-width:4.78125}
		.st5 {fill:#e56334;stroke:none;stroke-linecap:butt;stroke-width:4.78125}
		.st6 {fill:none;fill-rule:evenodd;font-size:12px;overflow:visible;stroke-linecap:square;stroke-miterlimit:3}
	]]>
	</style>

	<g>
		<title>Page-1</title>
		<g id="group17099-1" transform="translate(5.66929,-34.0157)">
			<title>1ES.17099</title>
			<g id="group17100-2">
				<title>Sheet.17100</title>
				<g id="shape17101-3">
					<title>Sheet.17101</title>
					<path d="M0 71.28 A2.23095 2.19592 -180 0 0 1.33 73.29 L53.59 95.75 C55.06 96.38 56.69 95.32 56.69 93.73 L56.69
								 87.24 A2.23184 2.19679 -180 0 0 55.36 85.23 L3.1 62.77 C1.64 62.14 0 63.21 0 64.79 L0 71.28 Z"
							class="st1"/>
				</g>
				<g id="shape17102-5" transform="translate(0,-14.3038)">
					<title>Sheet.17102</title>
					<path d="M0 85.58 L0 79.09 C0 77.51 1.64 76.45 3.1 77.08 L29.65 88.49 C31.33 89.21 31.46 91.52 29.87 92.41 L23.33
								 96.09 A2.20482 2.1702 0 0 1 21.35 96.2 L1.33 87.6 A2.2314 2.19636 0 0 1 -0 85.58 Z" class="st2"/>
				</g>
				<g id="shape17103-7" transform="translate(0,-22.4597)">
					<title>Sheet.17103</title>
					<path d="M56.69 87.24 A2.2314 2.19636 -180 0 0 55.36 85.23 L3.1 62.77 C1.64 62.14 0 63.21 0 64.79 L0 71.28 A2.2314
								 2.19636 -180 0 0 1.33 73.29 L53.59 95.75 C55.06 96.38 56.69 95.32 56.69 93.73 L56.69 87.24 Z"
							class="st3"/>
				</g>
				<g id="shape17104-9" transform="translate(24.0896,-22.4593)">
					<title>Sheet.17104</title>
					<path d="M32.6 87.24 L32.6 93.73 C32.6 95.32 30.97 96.38 29.5 95.75 L1.78 83.84 C0 83.07 0 80.57 1.79 79.81 L9.36
								 76.57 A2.20438 2.16977 0 0 1 11.12 76.57 L31.27 85.23 A2.23095 2.19592 0 0 1 32.6 87.24 L32.6 87.24
								 Z" class="st2"/>
				</g>
				<g id="shape17105-11">
					<title>Sheet.17105</title>
					<path d="M0 87.24 A2.2314 2.19636 0 0 1 1.33 85.23 L53.59 62.77 C55.06 62.14 56.69 63.21 56.69 64.79 L56.69 71.28
								 A2.2314 2.19636 0 0 1 55.36 73.29 L3.1 95.75 C1.64 96.38 0 95.32 0 93.73 L0 87.24 Z" class="st4"/>
				</g>
				<g id="shape17106-13" transform="translate(0,-22.4597)">
					<title>Sheet.17106</title>
					<path d="M56.69 71.28 A2.2314 2.19636 0 0 1 55.36 73.29 L3.1 95.75 C1.64 96.38 0 95.32 0 93.73 L0 87.24 A2.2314
								 2.19636 0 0 1 1.33 85.23 L53.59 62.77 C55.06 62.14 56.69 63.21 56.69 64.79 L56.69 71.28 Z"
							class="st5"/>
				</g>
			</g>
		</g>
	</g>
</svg>
